swiss/communes/0435.svg

<?xml version="1.0" encoding="UTF-8" standalone="no"?>
<svg
   xmlns:dc="http://purl.org/dc/elements/1.1/"
   xmlns:cc="http://web.resource.org/cc/"
   xmlns:rdf="http://www.w3.org/1999/02/22-rdf-syntax-ns#"
   xmlns:svg="http://www.w3.org/2000/svg"
   xmlns="http://www.w3.org/2000/svg"
   xmlns:xlink="http://www.w3.org/1999/xlink"
   xmlns:sodipodi="http://sodipodi.sourceforge.net/DTD/sodipodi-0.dtd"
   xmlns:inkscape="http://www.inkscape.org/namespaces/inkscape"
   height="763"
   width="603"
   version="1.0"
   id="svg20"
   sodipodi:version="0.32"
   inkscape:version="0.44.1"
   sodipodi:docname="La Ferrière-coat of arms.svg"
   sodipodi:docbase="F:\Mis Documentos\Mis imágenes\Encyclopédie\Escudos de Suiza">
  <metadata
     id="metadata31">
    <rdf:RDF>
      <cc:Work
         rdf:about="">
        <dc:format>image/svg+xml</dc:format>
        <dc:type
           rdf:resource="http://purl.org/dc/dcmitype/StillImage" />
        <dc:date>07-AUG-2006</dc:date>
        <dc:creator>
          <cc:Agent>
            <dc:title>Jérôme BLUM (wagner51)</dc:title>
          </cc:Agent>
        </dc:creator>
        <cc:license
           rdf:resource="http://creativecommons.org/licenses/GPL/2.0/" />
        <dc:coverage />
        <dc:description>Gabarit pour le Projet:Blasons de WIkipédia</dc:description>
        <dc:subject>
          <rdf:Bag>
            <rdf:li>blason suisse modèle gabarit projet blasons</rdf:li>
          </rdf:Bag>
        </dc:subject>
        <dc:language>fr</dc:language>
        <dc:title>Gabrit d'un blason suisse</dc:title>
      </cc:Work>
      <cc:License
         rdf:about="http://creativecommons.org/licenses/GPL/2.0/">
        <cc:permits
           rdf:resource="http://web.resource.org/cc/Reproduction" />
        <cc:permits
           rdf:resource="http://web.resource.org/cc/Distribution" />
        <cc:requires
           rdf:resource="http://web.resource.org/cc/Notice" />
        <cc:permits
           rdf:resource="http://web.resource.org/cc/DerivativeWorks" />
        <cc:requires
           rdf:resource="http://web.resource.org/cc/ShareAlike" />
        <cc:requires
           rdf:resource="http://web.resource.org/cc/SourceCode" />
      </cc:License>
    </rdf:RDF>
  </metadata>
  <defs
     id="defs29">
    <linearGradient
       id="linearGradient2893">
      <stop
         style="stop-color:#ffffff;stop-opacity:0.3137255;"
         offset="0"
         id="stop2895" />
      <stop
         id="stop2897"
         offset="0.19"
         style="stop-color:#ffffff;stop-opacity:0.25098041;" />
      <stop
         style="stop-color:#6b6b6b;stop-opacity:0.1254902;"
         offset="0.60000002"
         id="stop2901" />
      <stop
         style="stop-color:#000000;stop-opacity:0.1254902;"
         offset="1"
         id="stop2899" />
    </linearGradient>
    <linearGradient
       id="linearGradient2955">
      <stop
         style="stop-color:white;stop-opacity:0;"
         offset="0"
         id="stop2965" />
      <stop
         style="stop-color:black;stop-opacity:0.64583331;"
         offset="1"
         id="stop2959" />
    </linearGradient>
    <radialGradient
       inkscape:collect="always"
       xlink:href="#linearGradient2893"
       id="radialGradient3236"
       gradientUnits="userSpaceOnUse"
       gradientTransform="matrix(1.215027,1.531577e-24,1.464684e-23,1.266667,-839.1924,-490.4894)"
       cx="858.04236"
       cy="579.93323"
       fx="858.04236"
       fy="579.93323"
       r="300" />
  </defs>
  <sodipodi:namedview
     inkscape:window-height="682"
     inkscape:window-width="1024"
     inkscape:pageshadow="2"
     inkscape:pageopacity="0.0"
     guidetolerance="10.0"
     gridtolerance="10.0"
     objecttolerance="10.0"
     borderopacity="1.0"
     bordercolor="#666666"
     pagecolor="#ffffff"
     id="base"
     inkscape:zoom="0.59352439"
     inkscape:cx="286.85972"
     inkscape:cy="392.29712"
     inkscape:window-x="-4"
     inkscape:window-y="-4"
     inkscape:current-layer="layer2"
     showgrid="true"
     showguides="true"
     inkscape:guide-bbox="true" />
  <desc
     id="desc22">Coat of Arms of Canton of Freiburg (Fribourg)</desc>
  <g
     inkscape:groupmode="layer"
     id="layer1"
     inkscape:label="Fond écu"
     sodipodi:insensitive="true">
    <path
       id="path1899"
       d="M 1.5,1.49998 L 1.5,460.3679 C 1.5,626.6785 135.81456,761.5 301.49999,761.5 C 467.18543,761.5 601.5,626.6785 601.5,460.3679 L 601.5,1.49998 L 1.5,1.49998 z "
       style="fill:#2b5df2;fill-opacity:1" />
  </g>
  <g
     inkscape:groupmode="layer"
     id="layer2"
     inkscape:label="Meubles"
     sodipodi:insensitive="true">
    <g
       id="g9974"
       transform="translate(-0.995126,8)">
      <path
         sodipodi:nodetypes="ccccccccccccccccccccccccc"
         id="path1941"
         d="M 425.7842,684.6136 L 425.7842,638.83129 L 401.3344,638.83129 L 179.94674,638.83129 L 401.3344,638.83129 L 389.3543,359.29486 L 185.69205,359.29486 L 389.3543,359.29486 L 413.3146,359.29486 L 413.315,273.42731 L 367.79047,273.42731 L 367.79071,315.36109 L 322.15543,315.36109 L 322.26584,273.42731 L 276.74126,273.42731 L 276.52019,315.36109 L 230.88495,315.36109 L 230.88487,273.42731 L 185.69205,273.42731 L 185.69205,359.29486 L 213.6457,359.29486 L 201.66556,638.83129 L 179.94674,638.83129 L 179.94674,685.00331 L 425.7842,684.6136 z "
         style="fill:white;fill-opacity:1;fill-rule:evenodd;stroke:black;stroke-width:3.99337745px;stroke-linecap:butt;stroke-linejoin:miter;stroke-opacity:1" />
      <path
         id="path2830"
         d="M 213.6457,399.22864 L 389.3543,399.22864"
         style="fill:none;fill-rule:evenodd;stroke:black;stroke-width:3.99337745px;stroke-linecap:butt;stroke-linejoin:miter;stroke-opacity:1" />
      <path
         id="path2832"
         d="M 211.64901,453.13924 L 395.3444,453.13924"
         style="fill:none;fill-rule:evenodd;stroke:black;stroke-width:3.99337745px;stroke-linecap:butt;stroke-linejoin:miter;stroke-opacity:1" />
      <path
         sodipodi:nodetypes="cc"
         id="path2834"
         d="M 207.41491,499.06308 L 395.2925,499.06308"
         style="fill:none;fill-rule:evenodd;stroke:black;stroke-width:3.99337745px;stroke-linecap:butt;stroke-linejoin:miter;stroke-opacity:1" />
      <path
         id="path2836"
         d="M 205.65894,550.97698 C 397.3411,550.97698 397.3411,550.97698 397.3411,550.97698"
         style="fill:none;fill-rule:evenodd;stroke:black;stroke-width:3.99337745px;stroke-linecap:butt;stroke-linejoin:miter;stroke-opacity:1" />
      <path
         sodipodi:nodetypes="cc"
         id="path2840"
         d="M 204.19565,594.90414 L 397.3411,594.90414"
         style="fill:none;fill-rule:evenodd;stroke:black;stroke-width:3.99337745px;stroke-linecap:butt;stroke-linejoin:miter;stroke-opacity:1" />
      <path
         sodipodi:nodetypes="cc"
         id="path2842"
         d="M 237.60596,638.83129 L 237.31329,595.38562"
         style="fill:none;fill-rule:evenodd;stroke:black;stroke-width:3.99337745px;stroke-linecap:butt;stroke-linejoin:miter;stroke-opacity:1" />
      <path
         id="path2844"
         d="M 361.40066,638.83129 L 361.40066,594.90414"
         style="fill:none;fill-rule:evenodd;stroke:black;stroke-width:3.99337745px;stroke-linecap:butt;stroke-linejoin:miter;stroke-opacity:1" />
      <path
         sodipodi:nodetypes="cc"
         id="path2846"
         d="M 345.71983,550.4955 L 345.42715,499.06308"
         style="fill:none;fill-rule:evenodd;stroke:black;stroke-width:3.99337745px;stroke-linecap:butt;stroke-linejoin:miter;stroke-opacity:1" />
      <path
         sodipodi:nodetypes="cc"
         id="path2848"
         d="M 249.58609,550.97698 L 249.58609,499.83723"
         style="fill:none;fill-rule:evenodd;stroke:black;stroke-width:3.99337745px;stroke-linecap:butt;stroke-linejoin:miter;stroke-opacity:1" />
      <path
         sodipodi:nodetypes="cc"
         id="path2850"
         d="M 301.5,499.06308 L 301.5,451.14255"
         style="fill:none;fill-rule:evenodd;stroke:black;stroke-width:3.99337745px;stroke-linecap:butt;stroke-linejoin:miter;stroke-opacity:1" />
      <path
         id="path2852"
         d="M 301.5,399.22864 L 301.5,359.29486"
         style="fill:none;fill-rule:evenodd;stroke:black;stroke-width:3.99337745px;stroke-linecap:butt;stroke-linejoin:miter;stroke-opacity:1" />
      <rect
         y="399.32712"
         x="243.69452"
         height="53.713711"
         width="31.750257"
         id="rect3750"
         style="opacity:1;fill:#e20909;fill-opacity:1;fill-rule:nonzero;stroke:black;stroke-width:4.19020557;stroke-linejoin:miter;stroke-miterlimit:4;stroke-dasharray:none;stroke-opacity:1" />
      <rect
         style="opacity:1;fill:#e20909;fill-opacity:1;fill-rule:nonzero;stroke:black;stroke-width:4.19020557;stroke-linejoin:miter;stroke-miterlimit:4;stroke-dasharray:none;stroke-opacity:1"
         id="rect4637"
         width="31.750257"
         height="53.713711"
         x="323.56207"
         y="399.32712" />
      <path
         sodipodi:nodetypes="czzcc"
         id="path4639"
         d="M 333.44702,638.83129 L 333.44702,558.96374 C 333.44702,519.47151 261.56623,522.26955 261.56623,558.96374 L 261.56623,638.83129 L 333.44702,638.83129 z "
         style="fill:#e20909;fill-opacity:1;fill-rule:evenodd;stroke:black;stroke-width:3.99337745px;stroke-linecap:butt;stroke-linejoin:miter;stroke-opacity:1" />
    </g>
    <path
       style="fill:#fcef3c;fill-opacity:1;fill-rule:evenodd;stroke:black;stroke-width:3.99337745px;stroke-linecap:butt;stroke-linejoin:miter;stroke-opacity:1"
       d="M 1.5,1.5 L 1.5,216.78125 C 9.6720036,227.83276 32.915308,252.70909 77.34375,253.59375 C 131.94749,254.68103 171.64054,192.5622 225.875,230.09375 C 277.76323,266.0016 324.78084,265.2741 360,232.90625 C 401.68665,194.59455 443.73475,215.8905 469.21875,231.5 C 507.07336,254.68672 558.28987,265.67719 601.5,215.625 L 601.5,1.5 L 1.5,1.5 z "
       id="path7300" />
    <path
       style="fill:#e20909;fill-opacity:1;fill-rule:evenodd;stroke:black;stroke-width:3.99337745px;stroke-linecap:butt;stroke-linejoin:miter;stroke-opacity:1"
       d="M 302.59375,25.71875 L 272.15625,130.9375 C 270.87026,103.18317 257.24362,86.52982 236.1875,75.375 C 221.11745,67.391401 215.5,36.875 215.5,36.875 C 169.89035,72.483347 238.95272,89.978141 231.15625,146.96875 L 113.5,46.03125 L 194.8125,171.25 C 181.31013,158.94269 171.64769,156.09046 140.65625,150 C 102.59944,142.52105 89.15642,77.69015 50,80.5625 C 73.25112,104.50544 75.785464,161.12433 111.15625,171.625 C 141.60759,180.6652 144.41435,186.77663 167.875,202.375 L 21.59375,186.15625 L 125.625,240.8125 C 158.52332,225.35972 188.79839,204.43584 225.875,230.09375 C 233.09265,235.08853 240.20836,239.3466 247.21875,242.9375 L 351.90625,239.625 C 354.66344,237.56386 357.37133,235.3221 360,232.90625 C 401.68665,194.59455 443.73475,215.8905 469.21875,231.5 C 471.57128,232.94097 473.98678,234.32131 476.4375,235.65625 L 482.65625,235.46875 L 581.40625,173.78125 L 430.46875,201.09375 C 452.02726,191.18444 472.1875,182.58006 490.3125,174.40625 C 534.04021,154.68632 517.3784,99.69206 561.0625,87.78125 C 527.40477,74.206443 516.2448,96.804361 492,126.25 C 472.50819,149.92303 451.5342,136.92378 407.25,170.875 L 485.15625,50.71875 L 368.75,144.78125 C 370.31745,89.808666 432.72325,80.224789 391.59375,35.09375 C 385.03715,84.120451 339.43279,65.545271 328.09375,130.59375 L 302.59375,25.71875 z "
       id="path5526" />
    <path
       style="fill:#e20909;fill-opacity:1;fill-rule:evenodd;stroke:black;stroke-width:3.99337745px;stroke-linecap:butt;stroke-linejoin:miter;stroke-opacity:1"
       d="M 304.59375,129.03125 C 240.88517,128.42147 177.23993,162.02564 164.09375,223.125 C 183.59383,216.11903 203.49466,214.60601 225.875,230.09375 C 277.76323,266.0016 324.78084,265.2741 360,232.90625 C 387.93336,207.23437 416.02387,208.35265 439.1875,216.5625 C 417.91588,157.16713 361.23643,129.5734 304.59375,129.03125 z "
       id="path6413" />
    <path
       style="fill:white;fill-opacity:1;fill-rule:evenodd;stroke:black;stroke-width:3.99337745px;stroke-linecap:butt;stroke-linejoin:miter;stroke-opacity:1"
       d="M 509.02475,635.15656 C 490.27405,608.57277 490.52875,579.13878 489.64625,538.72895 C 492.00335,633.31461 408.79245,614.1621 417.88605,557.59946 C 424.27915,517.83428 465.13455,514.08494 488.27365,461.9397 C 508.47945,511.92732 546.84335,516.74337 553.36155,557.59946 C 561.47275,608.43995 481.48085,618.83618 489.64625,538.72895 C 485.53335,578.51877 492.17015,606.43611 463.84945,635.15656 L 509.02475,635.15656 z "
       id="path8187"
       sodipodi:nodetypes="ccscsccc" />
    <path
       sodipodi:nodetypes="ccscsccc"
       id="path9074"
       d="M 524.9983,433.47444 C 506.2476,406.89065 506.5023,393.43017 505.6198,353.02034 C 507.9769,447.606 424.766,428.45349 433.8597,371.89085 C 440.2527,332.12567 481.1081,328.37633 504.2472,276.23109 C 524.453,326.21871 562.8169,331.03476 569.3351,371.89085 C 577.4463,422.73134 497.4544,433.12758 505.6198,353.02034 C 501.5069,392.81016 505.7077,400.15162 495.7965,433.47444 L 524.9983,433.47444 z "
       style="fill:white;fill-opacity:1;fill-rule:evenodd;stroke:black;stroke-width:3.99337745px;stroke-linecap:butt;stroke-linejoin:miter;stroke-opacity:1" />
    <path
       sodipodi:nodetypes="ccscsccc"
       id="path9076"
       d="M 94.716009,637.15656 C 113.46671,610.57277 113.21197,581.13878 114.09447,540.72895 C 111.73738,635.31461 194.94826,616.1621 185.85462,559.59946 C 179.46155,519.83428 138.60622,516.08494 115.46711,463.9397 C 95.261299,513.92732 56.897399,518.74337 50.379129,559.59946 C 42.267939,610.43995 122.25989,620.83618 114.09447,540.72895 C 118.20741,580.51877 111.57057,608.43611 139.89125,637.15656 L 94.716009,637.15656 z "
       style="fill:white;fill-opacity:1;fill-rule:evenodd;stroke:black;stroke-width:3.99337745px;stroke-linecap:butt;stroke-linejoin:miter;stroke-opacity:1" />
    <path
       style="fill:white;fill-opacity:1;fill-rule:evenodd;stroke:black;stroke-width:3.99337745px;stroke-linecap:butt;stroke-linejoin:miter;stroke-opacity:1"
       d="M 85.646049,438.8439 C 97.493199,411.49301 97.238459,393.43017 98.120959,353.02034 C 95.763869,447.606 178.97475,428.45349 169.88111,371.89085 C 163.48804,332.12567 122.63271,328.37633 99.493599,276.23109 C 79.287789,326.21871 40.923889,331.03476 34.405619,371.89085 C 26.294429,422.73134 106.28638,433.12758 98.120959,353.02034 C 102.2339,392.81016 103.40252,407.05517 114.84778,438.8439 L 85.646049,438.8439 z "
       id="path9078"
       sodipodi:nodetypes="ccscsccc" />
  </g>
  <g
     inkscape:groupmode="layer"
     id="layer3"
     inkscape:label="Reflet final"
     style="display:inline"
     sodipodi:insensitive="true">
    <path
       style="fill:url(#radialGradient3236);fill-opacity:1"
       d="M 1.5,1.5 L 1.5,460.3679 C 1.5,626.67854 135.81454,761.5 301.49993,761.5 C 467.1854,761.5 601.5,626.67854 601.5,460.3679 L 601.5,1.5 L 1.5,1.5 z "
       id="path2346" />
  </g>
  <g
     inkscape:groupmode="layer"
     id="layer4"
     inkscape:label="Contour final"
     style="display:inline"
     sodipodi:insensitive="true">
    <path
       style="fill:none;fill-opacity:1;stroke:black;stroke-width:3;stroke-miterlimit:4;stroke-dasharray:none;stroke-opacity:1"
       d="M 1.5,1.5 L 1.5,460.36794 C 1.5,626.67854 135.81454,761.5 301.49993,761.5 C 467.1854,761.5 601.5,626.67854 601.5,460.36794 L 601.5,1.5 L 1.5,1.5 z "
       id="path3239" />
  </g>
</svg>

<svg xmlns="http://www.w3.org/2000/svg" xmlns:xlink="http://www.w3.org/1999/xlink" height="763" width="603" version="1.0"><defs><radialGradient xlink:href="#a" id="b" gradientUnits="userSpaceOnUse" gradientTransform="matrix(1.21503 0 0 1.26667 -839.192 -490.49)" cx="858.042" cy="579.933" fx="858.042" fy="579.933" r="300"/><linearGradient id="a"><stop style="stop-color:#fff;stop-opacity:.3137255" offset="0"/><stop offset=".19" style="stop-color:#fff;stop-opacity:.25098041"/><stop style="stop-color:#6b6b6b;stop-opacity:.1254902" offset=".6"/><stop style="stop-color:#000;stop-opacity:.1254902" offset="1"/></linearGradient></defs><path d="M1.5 1.5v458.868c0 166.31 134.315 301.132 300 301.132s300-134.822 300-301.132V1.5H1.5z" style="fill:#2b5df2;fill-opacity:1"/><path d="M425.784 684.614V638.83H179.947h221.387l-11.98-279.536H185.692h227.622l.001-85.868H367.79v41.934h-45.635l.11-41.934h-45.524l-.22 41.934h-45.636v-41.934h-45.193v85.868h27.954l-11.98 279.536h-21.72v46.172l245.838-.39z" style="fill:#fff;fill-opacity:1;fill-rule:evenodd;stroke:#000;stroke-width:3.99337745px;stroke-linecap:butt;stroke-linejoin:miter;stroke-opacity:1" transform="translate(-.995 8)"/><path d="M213.646 399.229h175.708M211.649 453.14h183.695M207.415 499.063h187.878M205.659 550.977H397.34M204.196 594.904H397.34M237.606 638.831l-.293-43.445M361.4 638.831v-43.927M345.72 550.495l-.293-51.432M249.586 550.977v-51.14M301.5 499.063v-47.92M301.5 399.229v-39.934" style="fill:none;fill-rule:evenodd;stroke:#000;stroke-width:3.99337745px;stroke-linecap:butt;stroke-linejoin:miter;stroke-opacity:1" transform="translate(-.995 8)"/><path style="opacity:1;fill:#e20909;fill-opacity:1;fill-rule:nonzero;stroke:#000;stroke-width:4.19020557;stroke-linejoin:miter;stroke-miterlimit:4;stroke-dasharray:none;stroke-opacity:1" d="M243.695 399.327h31.75v53.714h-31.75zM323.562 399.327h31.75v53.714h-31.75z" transform="translate(-.995 8)"/><path d="M333.447 638.831v-79.867c0-39.492-71.88-36.694-71.88 0v79.867h71.88z" style="fill:#e20909;fill-opacity:1;fill-rule:evenodd;stroke:#000;stroke-width:3.99337745px;stroke-linecap:butt;stroke-linejoin:miter;stroke-opacity:1" transform="translate(-.995 8)"/><path style="fill:#fcef3c;fill-opacity:1;fill-rule:evenodd;stroke:#000;stroke-width:3.99337745px;stroke-linecap:butt;stroke-linejoin:miter;stroke-opacity:1" d="M1.5 1.5v215.281c8.172 11.052 31.415 35.928 75.844 36.813 54.603 1.087 94.297-61.032 148.531-23.5 51.888 35.908 98.906 35.18 134.125 2.812 41.687-38.311 83.735-17.016 109.219-1.406 37.854 23.187 89.07 34.177 132.281-15.875V1.5H1.5z"/><path style="fill:#e20909;fill-opacity:1;fill-rule:evenodd;stroke:#000;stroke-width:3.99337745px;stroke-linecap:butt;stroke-linejoin:miter;stroke-opacity:1" d="m302.594 25.719-30.438 105.219c-1.286-27.755-14.912-44.408-35.969-55.563-15.07-7.984-20.687-38.5-20.687-38.5-45.61 35.608 23.453 53.103 15.656 110.094L113.5 46.03l81.313 125.219c-13.503-12.307-23.165-15.16-54.157-21.25C102.6 142.521 89.156 77.69 50 80.562c23.251 23.943 25.785 80.562 61.156 91.063 30.452 9.04 33.258 15.152 56.719 30.75L21.594 186.156l104.031 54.656c32.898-15.452 63.173-36.376 100.25-10.718 7.218 4.995 14.333 9.253 21.344 12.844l104.687-3.313a103.95 103.95 0 0 0 8.094-6.719c41.687-38.311 83.735-17.016 109.219-1.406a164.193 164.193 0 0 0 7.219 4.156l6.218-.187 98.75-61.688-150.937 27.313c21.558-9.91 41.719-18.514 59.844-26.688 43.727-19.72 27.065-74.714 70.75-86.625-33.658-13.575-44.818 9.023-69.063 38.469-19.492 23.673-40.466 10.674-84.75 44.625l77.906-120.156L368.75 144.78c1.567-54.972 63.973-64.556 22.844-109.687-6.557 49.026-52.161 30.451-63.5 95.5l-25.5-104.875z"/><path style="fill:#e20909;fill-opacity:1;fill-rule:evenodd;stroke:#000;stroke-width:3.99337745px;stroke-linecap:butt;stroke-linejoin:miter;stroke-opacity:1" d="M304.594 129.031c-63.709-.61-127.354 32.995-140.5 94.094 19.5-7.006 39.4-8.519 61.781 6.969 51.888 35.908 98.906 35.18 134.125 2.812 27.933-25.672 56.024-24.553 79.188-16.344-21.272-59.395-77.952-86.989-134.594-87.53z"/><path style="fill:#fff;fill-opacity:1;fill-rule:evenodd;stroke:#000;stroke-width:3.99337745px;stroke-linecap:butt;stroke-linejoin:miter;stroke-opacity:1" d="M509.025 635.157c-18.75-26.584-18.496-56.018-19.379-96.428 2.357 94.586-80.854 75.433-71.76 18.87 6.393-39.765 47.249-43.514 70.388-95.66 20.205 49.988 58.57 54.804 65.088 95.66 8.11 50.84-71.881 61.237-63.716-18.87-4.113 39.79 2.524 67.707-25.797 96.428h45.176zM524.998 433.474c-18.75-26.583-18.496-40.044-19.378-80.454 2.357 94.586-80.854 75.433-71.76 18.87 6.393-39.764 47.248-43.514 70.387-95.659 20.206 49.988 58.57 54.804 65.088 95.66 8.111 50.84-71.88 61.237-63.715-18.87-4.113 39.79.088 47.13-9.824 80.453h29.202zM94.716 637.157c18.75-26.584 18.496-56.018 19.378-96.428-2.357 94.586 80.854 75.433 71.76 18.87-6.392-39.765-47.248-43.514-70.387-95.66-20.206 49.988-58.57 54.804-65.088 95.66-8.111 50.84 71.88 61.237 63.715-18.87 4.113 39.79-2.523 67.707 25.797 96.428H94.716zM85.646 438.844c11.847-27.351 11.592-45.414 12.475-85.824-2.357 94.586 80.854 75.433 71.76 18.87-6.393-39.764-47.248-43.514-70.387-95.659-20.206 49.988-58.57 54.804-65.088 95.66-8.112 50.84 71.88 61.237 63.715-18.87 4.113 39.79 5.282 54.034 16.727 85.823H85.646z"/><g style="display:inline"><path style="fill:url(#b);fill-opacity:1" d="M1.5 1.5v458.868c0 166.31 134.315 301.132 300 301.132s300-134.821 300-301.132V1.5H1.5z"/></g><g style="display:inline"><path style="fill:none;fill-opacity:1;stroke:#000;stroke-width:3;stroke-miterlimit:4;stroke-dasharray:none;stroke-opacity:1" d="M1.5 1.5v458.868c0 166.31 134.315 301.132 300 301.132s300-134.821 300-301.132V1.5H1.5z"/></g></svg>
